X:17
T:Village Parson. Ca1758.041, The
M:2/4
L:1/8
Q:1/2=80
B:Cahusac,T. 24 Country Dances for the Year 1758
Z:vmp.Mike Hicken 2015 www.village-music-project.org.uk
N:* There is no repeat sign shown here in the original.
K:A
B|cB/c/ dc|B2A2|EA AB c/B/c/d/ cc|cB/c/ dc|B2A2 EAAB|Bc2 :|
|:d|ef/e/ de/d/| c2d2|ef/e/ dc|B/A/B/c/ BB|ef/e/ de/d/|c2 (d/e/f)|edcB|A3 "*":|
W:
W: The 1st. Cu set and turn .|  Change
W: Sides set and turn :|  Cast off half fi-
W: gure .| and Right and Left :|

